static/images/logos/justcall.svg

<svg width="532" height="135" viewBox="0 0 532 135" fill="none" xmlns="http://www.w3.org/2000/svg">
<path d="M11.0094 41.8879L1.05448 50.3838C-0.351492 51.5883 -0.351492 53.7565 1.05448 54.961L11.0094 63.4087" fill="#03008F"/>
<path d="M89.5726 76.7842L99.5275 68.2882C100.933 67.0837 100.933 64.9156 99.5275 63.711L89.5726 55.2633" fill="#004CE6"/>
<path d="M63.3778 28.8349C62.3273 28.8349 61.3415 29.0276 60.3234 29.14C62.2142 32.7376 63.3778 36.7527 63.3778 41.0889V72.3745C63.3778 85.7046 53.2451 96.5774 40.2358 98.0871C44.5992 106.422 53.2774 112.172 63.3778 112.172C77.8414 112.172 89.574 100.512 89.574 86.1543V54.8687C89.574 40.4947 77.8414 28.8349 63.3778 28.8349Z" fill="#004CE6"/>
<path d="M37.2081 86.1606V54.875C37.2081 41.5449 47.3408 30.6721 60.35 29.1624C55.9867 20.8271 47.3084 15.0775 37.2081 15.0775C22.7444 15.0775 11.0118 26.7373 11.0118 41.0952V72.3808C11.0118 86.7548 22.7444 98.3985 37.2081 98.3985C38.2424 98.3985 39.2443 98.2058 40.2463 98.0934C38.3717 94.5119 37.2081 90.4969 37.2081 86.1606Z" fill="#03008F"/>
<path d="M135.312 114.24C129.112 114.24 123.137 113.113 119.98 111.196L125.955 98.2325C127.533 99.3597 130.126 100.036 133.17 100.036C138.468 100.036 142.414 97.6688 142.414 91.4687V34.0894H158.196V92.0323C158.196 107.364 148.501 114.24 135.312 114.24ZM194.015 114.353C181.389 114.353 171.694 104.996 171.694 90.2287V54.3807H186.913V86.5086C186.913 96.6542 191.084 101.051 198.636 101.051C205.062 101.051 210.811 96.6542 210.811 86.5086V54.3807H226.03V113H211.262V104.207C208.444 110.971 203.146 114.353 194.015 114.353ZM259.583 114.465C249.662 114.465 241.659 111.084 235.233 104.207L245.491 94.8506C249.775 99.6979 254.284 102.065 259.244 102.065C264.43 102.065 267.361 99.4725 267.361 95.9779C267.361 92.9342 265.895 91.2432 256.652 89.1014C240.982 85.3813 238.615 78.2794 238.615 70.8392C238.615 60.5808 246.731 52.9152 260.484 52.9152C269.954 52.9152 276.266 55.2826 282.241 63.0609L271.194 71.5156C268.375 67.0064 264.768 65.2028 260.823 65.2028C256.652 65.2028 253.495 66.781 253.495 70.3883C253.495 72.4174 254.397 74.2211 261.386 76.0248C278.408 80.4212 282.354 86.7341 282.354 95.5269C282.354 106.349 272.546 114.465 259.583 114.465ZM314.011 113C302.4 113 296.087 107.589 296.087 94.8506V67.3446H287.858V54.3807H296.087V42.5442L311.306 40.9659V54.3807H323.706V67.3446H311.306V94.0615C311.306 97.7815 313.11 99.4725 316.041 99.4725H322.353V113H314.011ZM372.758 114.465C349.31 114.465 331.611 96.2033 331.611 73.6575C331.611 50.9989 348.408 32.624 372.758 32.624C385.609 32.624 394.514 36.5695 401.616 45.0242L390.456 54.7189C385.721 49.7588 379.859 47.2788 372.758 47.2788C357.539 47.2788 347.957 59.2281 347.957 73.6575C347.957 88.0868 357.539 99.8107 373.096 99.8107C380.761 99.8107 386.511 97.2179 391.132 92.1451L402.631 101.953C396.656 109.167 386.511 114.465 372.758 114.465ZM435.865 114.465C419.745 114.465 406.893 100.825 406.893 83.9158C406.893 67.0064 419.745 53.1407 435.865 53.1407C446.01 53.1407 451.309 57.3117 454.465 63.6245V54.3807H469.571V113H454.803V103.418C451.647 110.069 446.349 114.465 435.865 114.465ZM422.112 83.8031C422.112 92.7087 428.65 100.712 438.345 100.712C448.378 100.712 454.803 93.0469 454.803 83.9158C454.803 74.7847 448.378 66.8937 438.345 66.8937C428.65 66.8937 422.112 74.672 422.112 83.8031ZM483.122 113V30.7076H498.341V113H483.122ZM511.851 113V30.7076H527.069V113H511.851Z" fill="black"/>
</svg>

<svg xmlns="http://www.w3.org/2000/svg" width="532" height="135" fill="none" viewBox="0 0 532 135"><path fill="#03008f" d="m11.01 41.888-9.956 8.496a3.01 3.01 0 0 0 0 4.577l9.955 8.448"/><path fill="#004ce6" d="m89.573 76.784 9.955-8.496a3.01 3.01 0 0 0 0-4.577l-9.955-8.448"/><path fill="#004ce6" d="M63.378 28.835c-1.05 0-2.036.193-3.055.305 1.891 3.598 3.055 7.613 3.055 11.949v31.286c0 13.33-10.133 24.202-23.142 25.712 4.363 8.335 13.041 14.085 23.142 14.085 14.463 0 26.196-11.66 26.196-26.018V54.87c0-14.374-11.733-26.034-26.196-26.034"/><path fill="#03008f" d="M37.208 86.16V54.876c0-13.33 10.133-24.203 23.142-25.713-4.363-8.335-13.042-14.084-23.142-14.084-14.464 0-26.196 11.66-26.196 26.017v31.286c0 14.374 11.732 26.018 26.196 26.018 1.034 0 2.036-.193 3.038-.306-1.874-3.581-3.038-7.596-3.038-11.932"/><path fill="#000" d="M135.312 114.24c-6.2 0-12.175-1.127-15.332-3.044l5.975-12.963c1.578 1.127 4.171 1.803 7.215 1.803 5.298 0 9.244-2.367 9.244-8.567v-57.38h15.782v57.943c0 15.332-9.695 22.208-22.884 22.208m58.703.113c-12.626 0-22.321-9.357-22.321-24.124V54.38h15.219v32.128c0 10.145 4.171 14.542 11.723 14.542 6.426 0 12.175-4.397 12.175-14.542V54.38h15.219V113h-14.768v-8.793c-2.818 6.764-8.116 10.146-17.247 10.146m65.568.112c-9.921 0-17.924-3.381-24.35-10.258l10.258-9.356c4.284 4.847 8.793 7.214 13.753 7.214 5.186 0 8.117-2.593 8.117-6.087 0-3.044-1.466-4.735-10.709-6.877-15.67-3.72-18.037-10.822-18.037-18.262 0-10.258 8.116-17.924 21.869-17.924 9.47 0 15.782 2.368 21.757 10.146l-11.047 8.455c-2.819-4.51-6.426-6.313-10.371-6.313-4.171 0-7.328 1.578-7.328 5.185 0 2.03.902 3.833 7.891 5.637 17.022 4.396 20.968 10.71 20.968 19.502 0 10.822-9.808 18.938-22.771 18.938M314.011 113c-11.611 0-17.924-5.411-17.924-18.15V67.346h-8.229V54.38h8.229V42.544l15.219-1.578V54.38h12.4v12.964h-12.4V94.06c0 3.72 1.804 5.411 4.735 5.411h6.312V113zm58.747 1.465c-23.448 0-41.147-18.262-41.147-40.808 0-22.658 16.797-41.033 41.147-41.033 12.851 0 21.756 3.945 28.858 12.4l-11.16 9.695c-4.735-4.96-10.597-7.44-17.698-7.44-15.219 0-24.801 11.95-24.801 26.378 0 14.43 9.582 26.154 25.139 26.154 7.665 0 13.415-2.593 18.036-7.666l11.499 9.808c-5.975 7.214-16.12 12.512-29.873 12.512m63.107 0c-16.12 0-28.972-13.64-28.972-30.55 0-16.909 12.852-30.774 28.972-30.774 10.145 0 15.444 4.17 18.6 10.484V54.38h15.106V113h-14.768v-9.582c-3.156 6.651-8.454 11.047-18.938 11.047m-13.753-30.662c0 8.906 6.538 16.909 16.233 16.909 10.033 0 16.458-7.665 16.458-16.796s-6.425-17.022-16.458-17.022c-9.695 0-16.233 7.778-16.233 16.91M483.122 113V30.708h15.219V113zm28.729 0V30.708h15.218V113z"/></svg>
